Papirus-Dark/symbolic/devices/printer-symbolic.svg

<?xml version='1.0' encoding='UTF-8' standalone='no'?>
<svg height="16" style="enable-background:new" version="1.1" width="16" xmlns="http://www.w3.org/2000/svg">
 <title>
  Paper Symbolic Icon Theme
 </title>
 <defs>
  <filter color-interpolation-filters="sRGB" id="filter7554">
   <feBlend in2="BackgroundImage" mode="darken"/>
  </filter>
 </defs>
 <g style="filter:url(#filter7554)" transform="translate(-365.0002,159)">
  <g transform="translate(365.0002,-159)">
   <path d="M 2,4 C 1.5,4 1,4.5 1,5 l 0,4 c 0,0.5 0.5,1 1,1 l 1,0 0,-2 10,0 0,2 1,0 c 0.5,0 1,-0.5 1,-1 L 15,5 C 15,4.5 14.5,4 14,4 L 2,4 z" style="fill:#d3dae3;fill-opacity:1;"/>
   <path d="M 4,1 4,3 12,3 12,1 4,1 z" style="fill:#d3dae3;fill-opacity:1;"/>
   <path d="M 4,9.0000001 4,14 l 8,0 0,-5 z" style="fill:#d3dae3;fill-opacity:1;"/>
  </g>
 </g>
</svg>

<svg xmlns="http://www.w3.org/2000/svg" width="16" height="16" version="1.1">
 <path style="fill:#d3dae3" d="M 4 1 L 4 3 L 12 3 L 12 1 L 4 1 z M 2 4 C 1.5 4 1 4.5 1 5 L 1 9 C 1 9.5 1.5 10 2 10 L 3 10 L 3 8 L 13 8 L 13 10 L 14 10 C 14.5 10 15 9.5 15 9 L 15 5 C 15 4.5 14.5 4 14 4 L 2 4 z M 4 9 L 4 14 L 12 14 L 12 9 L 4 9 z"/>
</svg>
